X: 983
T: Spotted Cow, The
T: An Bo Breac
R:double jig
C:"collected by F.O'Neill"
S:983 O'Neill's Music of Ireland
N:A tilde has been used to denote a shake
B:O'Neill's 983
Z:Transcribed by Robert Thorpe (thorpe@skep.com)
Z:ABCMUS 1.0
M:6/8
L:1/8
K:D
Add fdd|edd fdd|Add fdd|edB ~BAF|
|Add fdd|edd fdd|f/-g/-af geg|fdB B2 d:|
AFA A2 B|AFA A2 B|AFA Dfe|fdB B2 d|
|AGF A2 d|AGF A2 B|dfd e/-f/-ge|fdB B2 d:|
ABA AFA|DFA DFA|ABA AFA|fdB BAF|
|ABA AFA|DFA DFA|f/-g/-a.f geg|fdB B2 d:|


